ru/_assets/tracker/svg/local-field-move.svg

<svg xmlns="http://www.w3.org/2000/svg" xmlns:xlink="http://www.w3.org/1999/xlink" width="16" height="16" class="g-icon" fill="currentColor" stroke="none" aria-hidden="true"><svg viewBox="0 0 16 16" xmlns="http://www.w3.org/2000/svg"><path fill-rule="evenodd" clip-rule="evenodd" d="M6.43934 4.06066L6.87868 4.5H7.5H12.5C13.3284 4.5 14 5.17157 14 6V11C14 11.8284 13.3284 12.5 12.5 12.5H3.5C2.67157 12.5 2 11.8284 2 11V4.5C2 3.67157 2.67157 3 3.5 3H4.75736C5.15518 3 5.53672 3.15804 5.81802 3.43934L6.43934 4.06066ZM0.5 4.5C0.5 2.84315 1.84315 1.5 3.5 1.5H4.75736C5.55301 1.5 6.31607 1.81607 6.87868 2.37868L7.5 3H12.5C14.1569 3 15.5 4.34315 15.5 6V11C15.5 12.6569 14.1569 14 12.5 14H3.5C1.84315 14 0.5 12.6569 0.5 11V4.5ZM7.46967 11.0303C7.76256 11.3232 8.23744 11.3232 8.53033 11.0303C8.82322 10.7374 8.82322 10.2626 8.53033 9.96967L7.81066 9.25H10C10.4142 9.25 10.75 8.91421 10.75 8.5C10.75 8.08579 10.4142 7.75 10 7.75H7.81066L8.53033 7.03033C8.82322 6.73744 8.82322 6.26256 8.53033 5.96967C8.23744 5.67678 7.76256 5.67678 7.46967 5.96967L5.46967 7.96967C5.17678 8.26256 5.17678 8.73744 5.46967 9.03033L7.46967 11.0303Z"></path></svg></svg>

<svg xmlns="http://www.w3.org/2000/svg" width="16" height="16" fill="currentColor" aria-hidden="true" class="g-icon">
    <svg xmlns="http://www.w3.org/2000/svg" viewBox="0 0 16 16">
        <path fill-rule="evenodd" d="m6.44 4.06.439.44H12.5A1.5 1.5 0 0 1 14 6v5a1.5 1.5 0 0 1-1.5 1.5h-9A1.5 1.5 0 0 1 2 11V4.5A1.5 1.5 0 0 1 3.5 3h1.257a1.5 1.5 0 0 1 1.061.44l.621.62ZM.5 4.5a3 3 0 0 1 3-3h1.257a3 3 0 0 1 2.122.879L7.5 3h5a3 3 0 0 1 3 3v5a3 3 0 0 1-3 3h-9a3 3 0 0 1-3-3V4.5Zm6.97 6.53a.75.75 0 1 0 1.06-1.06l-.72-.72H10a.75.75 0 0 0 0-1.5H7.81l.72-.72a.75.75 0 0 0-1.06-1.06l-2 2a.75.75 0 0 0 0 1.06l2 2Z" clip-rule="evenodd"/>
    </svg>
</svg>
